source/img/icon-zoom.svg

<svg width="26" height="26" viewBox="0 0 26 26" fill="none" xmlns="http://www.w3.org/2000/svg">
<path fill-rule="evenodd" clip-rule="evenodd" d="M15.9358 15.1667L15.6325 14.8742C16.6942 13.6392 17.3333 12.0358 17.3333 10.2917C17.3333 6.4025 14.1808 3.25 10.2917 3.25C6.4025 3.25 3.25 6.4025 3.25 10.2917C3.25 14.1808 6.4025 17.3333 10.2917 17.3333C12.0358 17.3333 13.6392 16.6942 14.8742 15.6325L15.1667 15.9358V16.7917L19.8762 21.4918C20.2669 21.8817 20.8995 21.8813 21.2897 21.4911L21.4911 21.2897C21.8813 20.8995 21.8817 20.2669 21.4918 19.8762L16.7917 15.1667H15.9358ZM5.41667 10.2917C5.41667 7.59417 7.59417 5.41667 10.2917 5.41667C12.9892 5.41667 15.1667 7.59417 15.1667 10.2917C15.1667 12.9892 12.9892 15.1667 10.2917 15.1667C7.59417 15.1667 5.41667 12.9892 5.41667 10.2917Z" fill="#F2F5F7"/>
<mask id="mask0" mask-type="alpha" maskUnits="userSpaceOnUse" x="3" y="3" width="19" height="19">
<path fill-rule="evenodd" clip-rule="evenodd" d="M15.9358 15.1667L15.6325 14.8742C16.6942 13.6392 17.3333 12.0358 17.3333 10.2917C17.3333 6.4025 14.1808 3.25 10.2917 3.25C6.4025 3.25 3.25 6.4025 3.25 10.2917C3.25 14.1808 6.4025 17.3333 10.2917 17.3333C12.0358 17.3333 13.6392 16.6942 14.8742 15.6325L15.1667 15.9358V16.7917L19.8762 21.4918C20.2669 21.8817 20.8995 21.8813 21.2897 21.4911L21.4911 21.2897C21.8813 20.8995 21.8817 20.2669 21.4918 19.8762L16.7917 15.1667H15.9358ZM5.41667 10.2917C5.41667 7.59417 7.59417 5.41667 10.2917 5.41667C12.9892 5.41667 15.1667 7.59417 15.1667 10.2917C15.1667 12.9892 12.9892 15.1667 10.2917 15.1667C7.59417 15.1667 5.41667 12.9892 5.41667 10.2917Z" fill="white"/>
</mask>
<g mask="url(#mask0)">
<rect width="26" height="26" fill="#F2F5F7"/>
</g>
<path fill-rule="evenodd" clip-rule="evenodd" d="M10.8333 7.58331H9.75001V9.74998H7.58334V10.8333H9.75001V13H10.8333V10.8333H13V9.74998H10.8333V7.58331Z" fill="#F2F5F7"/>
</svg>

<svg width="26" height="26" fill="none" xmlns="http://www.w3.org/2000/svg"><path fill-rule="evenodd" clip-rule="evenodd" d="M15.936 15.167l-.303-.293a7.01 7.01 0 001.7-4.582 7.041 7.041 0 10-7.041 7.041 7.01 7.01 0 004.582-1.7l.293.303v.856l4.71 4.7a1 1 0 001.413 0l.201-.202a1 1 0 000-1.414l-4.7-4.71h-.855zm-10.52-4.875a4.868 4.868 0 014.876-4.875 4.868 4.868 0 014.875 4.875 4.868 4.868 0 01-4.875 4.875 4.868 4.868 0 01-4.875-4.875z" fill="#F2F5F7"/><mask id="a" maskUnits="userSpaceOnUse" x="3" y="3" width="19" height="19"><path fill-rule="evenodd" clip-rule="evenodd" d="M15.936 15.167l-.303-.293a7.01 7.01 0 001.7-4.582 7.041 7.041 0 10-7.041 7.041 7.01 7.01 0 004.582-1.7l.293.303v.856l4.71 4.7a1 1 0 001.413 0l.201-.202a1 1 0 000-1.414l-4.7-4.71h-.855zm-10.52-4.875a4.868 4.868 0 014.876-4.875 4.868 4.868 0 014.875 4.875 4.868 4.868 0 01-4.875 4.875 4.868 4.868 0 01-4.875-4.875z" fill="#fff"/></mask><g mask="url(#a)"><path fill="#F2F5F7" d="M0 0h26v26H0z"/></g><path fill-rule="evenodd" clip-rule="evenodd" d="M10.833 7.583H9.75V9.75H7.583v1.083H9.75V13h1.083v-2.167H13V9.75h-2.167V7.583z" fill="#F2F5F7"/></svg>
